X: 214
M: 2/4
L: 1/16
R: Skänklåt
T: Skålarna, skänklåt efter Byss-Kalle (nr 9)
S: efter Byss-Kalle
B: 57 låtar efter Byss-Kalle nr 9
B: Jämför [[http://www.smus.se/earkiv/fmk/browselarge.php?lang=sw&katalogid=Up+7&bildnr=00014|SMUS - katalog Up7 bild 14]] nr 12 efter [[Personer/Wilhelm Gelotte]] som både liknar och skiljer sig en hel del från denna variant.
N: Uppteckningen är ursprungligen hämtad ur Ruben Liljefors bok Upländsk Folkmusik.
O: Uppland
D: "Storsvarten" av Olov Johansson utgiven på Drone (spår 21)
Z: Nils L
Q: 60
%%printtempo 0
K: G
G2d2 d2d2 | (cB)cd c2Ac | B2B2 (dB)GB |1 A2D2 D4 :|2 A2D2 (DG)FG |]
!segno! A2A2 (AB)GB | A2D2 (DE)FG | A2A2 (AB)GB | A2D2 D2Ac | (BA)GF G2Ac | (BA)GF G2A2 | 
(BG)dG (BA)dF | !fine![B,4G4] |]| A4 | [K:Gm] B2d2 d2Bd | (dc)cc (=ec)Ac | (cB)BB (Bd)cB |
B2AB A4 | B2d2 d2Bd | (dc)cc (=ec)Ac | (cB)BB (Bd)cB | B2AB (AG)^FG [K:G] !D.S.!|] (:musicend:)

(:music:)
